archcraft-icons-qogir/files/Qogir/scalable/mimetypes/application-msoutlook.svg

<svg width="64" height="64" version="1.1" viewBox="0 0 64 64" xmlns="http://www.w3.org/2000/svg">
 <rect y="-.012027" width="64" height="64" rx="0" ry="0" fill="none" opacity=".75"/>
 <path d="m8.9992 1.0016h46.002v59h-45.998v-59z" color="#000000" fill="#3a539c" overflow="visible" stroke-width="3.7796"/>
 <path d="m8.5003 0.49889 46.999 0.00378v59.997h-46.996v-60.001z" color="#000000" fill="none" overflow="visible" stroke="#2b3e75" stroke-linecap="round" stroke-linejoin="round" stroke-width="1.0016"/>
 <path d="m21 21.501c-0.554 0-1 0.446-1 1v16c0 0.554 0.446 1 1 1h22c0.554 0 1-0.446 1-1v-16c0-0.554-0.446-1-1-1zm0 1h0.047l7.525 7.182-7.572 7.227zm1.258 0h19.484l-9.742 9.297zm20.695 0h0.047v14.408l-7.572-7.227zm-13.775 7.76 2.822 2.695 2.822-2.695 8.178 7.807v0.434h-22v-0.434z" color="#000000" color-rendering="auto" fill="#fff" image-rendering="auto" opacity=".75" shape-rendering="auto" solid-color="#000000" style="isolation:auto;mix-blend-mode:normal"/>
</svg>

<svg xmlns="http://www.w3.org/2000/svg" width="64" height="64"><rect width="64" height="64" y="-.012" fill="none" opacity=".75" rx="0" ry="0"/><path fill="#3a539c" d="M9 1.002H55v59H9.003v-59z" color="#000" overflow="visible"/><path fill="none" stroke="#2b3e75" stroke-linecap="round" stroke-linejoin="round" stroke-width="1.002" d="m8.5.499 47 .004V60.5H8.502V.499z" color="#000" overflow="visible"/><path fill="#fff" d="M21 21.501c-.554 0-1 .446-1 1v16c0 .554.446 1 1 1h22c.554 0 1-.446 1-1v-16c0-.554-.446-1-1-1zm0 1h.047l7.525 7.182L21 36.91zm1.258 0h19.484L32 31.798zm20.695 0H43v14.408l-7.572-7.227zm-13.775 7.76L32 32.956l2.822-2.695L43 38.068v.434H21v-.434z" color="#000" opacity=".75" style="isolation:auto;mix-blend-mode:normal"/></svg>
